public/icons/tokens/wpol.svg

<svg width="360" height="360" viewBox="0 0 360 360" fill="none" xmlns="http://www.w3.org/2000/svg"><rect width="360" height="360" rx="180" fill="#fff"/><path d="m218.804 99.582-50.232 28.85v90.041l-27.716 16.066-27.886-16.079v-32.147l27.886-15.923 17.93 10.398v-26.009l-18.087-10.268-50.22 29.176v57.712l50.39 29.019 50.219-29.019v-90.028l27.886-16.08 27.872 16.08v32.003l-27.872 16.223-18.087-10.49v25.879l17.917 10.333 50.715-28.849v-58.038l-50.715-28.85Z" fill="#6C00F6"/></svg>

<svg width="360" height="360" viewBox="0 0 360 360" fill="none" xmlns="http://www.w3.org/2000/svg">
<rect width="360" height="360" rx="180" fill="white"/>
<path d="M218.804 99.5819L168.572 128.432V218.473L140.856 234.539L112.97 218.46V186.313L140.856 170.39L158.786 180.788V154.779L140.699 144.511L90.4795 173.687V231.399L140.869 260.418L191.088 231.399V141.371L218.974 125.291L246.846 141.371V173.374L218.974 189.597L200.887 179.107V204.986L218.804 215.319L269.519 186.47V128.432L218.804 99.5819Z" fill="#6C00F6"/>
</svg>
